X:1
T:Zion’s Light, CMD
T:Zion’s Light, CMD
T:Attributed to Nicholson, 1820
T:Public Domain Courtesy of the Cyber Hymnal™
C:Attributed to Nicholson, 1820
Z:Public Domain
Z:Courtesy of the Cyber Hymnal™
%%score ( 1 2 ) ( 3 4 )
L:1/8
Q:1/4=180
M:6/4
K:E
V:1 treble 
V:2 treble 
V:3 bass 
V:4 bass 
V:1
|: E6 [EG]4 [EG]2 | ([EG]2 [DF]2) [EG]2 [GB]4 [GB]2 | [EG]4 [GB]2 ([Ac]2 [GB]2) [EG]2 | %3
 ([DF]2 E2) F2 E6 :| [GB]6 [Be]4 [Be]2 | ([GB]2 [Ac]2) [Ge]2 [Eg]4 [Ff]2 | [Ge]6 [GB]6 | %7
 [Ac]4 [Gc]2 ([Gc]2 [FB]2) [EG]2 | [FB]6 [GB]6 | [Gc]4 [Gc]2 ([Gc]2 [FB]2) [Gc]2 | %10
 [Be]4 [Be]2 G4 [EB]2 | (c2 B2) [EG]2 ([DF]2 E2) F2 | E12 |] %13
V:2
|: E6 x6 | x12 | x12 | x2 E2 F2 E6 :| x12 | x12 | x12 | x12 | x12 | x12 | x6 G4 x2 | %11
 E4 x2 E2 F2 x2 | E12 |] %13
V:3
|: [E,B,]6 [E,E]4 [C,B,]2 | [C,G,]4 [B,,B,]2 E,4 E,2 | G,4 [E,B,]2 [C,E]4 [C,C]2 | %3
 [B,,B,]4 [C,C]2 [E,B,]6 :| [E,E]4 [E,G]6 [E,E]2 | [E,C]4 [B,,B,]2 [C,E]4 [D,F]2 | [E,G]6 [E,G]6 | %7
 [F,F]4 [E,G]2 E4 [E,C]2 | [B,,B,]6 [E,B,]6 | [E,E]4 [C,B,]2 [C,G,]4 [B,,B,]2 | %10
 E,4 E,2 G,4 [E,B,]2 | [C,E]4 [C,C]2 [B,,B,]4 [C,C]2 | [E,B,]12 |] %13
V:4
|: x12 | x6 E,4 E,2 | G,4 x8 | x12 :| x12 | x12 | x12 | x6 (C,2 D,2) x2 | x12 | x12 | %10
 E,4 E,2 G,4 x2 | x12 | x12 |] %13

